build/images/new-logo-wide.svg

<svg xmlns="http://www.w3.org/2000/svg" width="320" height="64" viewBox="0 0 320 64"><g fill="#fff"><path d="M0 27.785q1.888 0 3.272-1.322 1.384-1.321 1.384-4.341V10.293q0-2.139.598-3.68.597-1.542 1.636-2.549 1.038-1.006 2.39-1.447 1.353-.44 2.8-.44h4.279v4.341H13.15q-1.07 0-1.699.409t-.944 1.07q-.314.66-.44 1.447-.126.786-.126 1.604v11.514q0 2.077-.661 3.461-.66 1.384-1.604 2.233-.944.85-1.95 1.29-1.007.441-1.636.504v.125q.629.063 1.636.441 1.006.377 1.95 1.227.944.849 1.604 2.296.661 1.447.661 3.712v11.326q0 .817.126 1.604.126.786.44 1.447.315.661.944 1.07.629.409 1.699.409h3.209v4.341H12.08q-1.447 0-2.8-.44-1.352-.441-2.39-1.448-1.039-1.006-1.636-2.516-.598-1.51-.598-3.712V38.355q0-3.209-1.384-4.562Q1.888 32.44 0 32.44zM54.927 23.254H47v15.541q0 2.706 1.006 3.87 1.007 1.164 3.209 1.164.818 0 1.762-.189.944-.189 1.699-.566l.188 4.844q-1.069.378-2.359.598-1.29.22-2.674.22-4.216 0-6.449-2.328-2.234-2.328-2.234-6.984v-16.17h-5.725V18.41h5.725V9.853H47v8.557h7.927zM72.355 41.815h.126l8.243-23.405h6.291L72.544 55.28q-.755 1.887-1.636 3.366-.88 1.478-2.076 2.516-1.195 1.039-2.8 1.605-1.604.566-3.806.566-.944 0-1.919-.094-.976-.095-1.982-.346l.566-5.223q1.51.504 2.957.504 2.328 0 3.461-1.29 1.132-1.29 2.076-3.681l1.888-4.97L56.5 18.41h6.607zM98.781 48.233h-5.914V.667h5.914zM130.932 30.679q-.063-1.762-.598-3.303-.535-1.542-1.573-2.674-1.038-1.133-2.579-1.794-1.542-.66-3.618-.66-1.888 0-3.555.66-1.667.661-2.894 1.794-1.227 1.132-2.014 2.674-.786 1.541-.912 3.303zm5.977 2.391v1.006q0 .504-.063 1.007h-23.657q.063 1.888.85 3.555.786 1.667 2.107 2.894 1.322 1.227 3.052 1.919t3.68.692q3.021 0 5.223-1.321t3.46-3.209l4.153 3.335q-2.391 3.146-5.631 4.624-3.241 1.479-7.205 1.479-3.397 0-6.291-1.133-2.895-1.132-4.971-3.177t-3.272-4.939q-1.195-2.894-1.195-6.418 0-3.46 1.164-6.386t3.24-5.002q2.077-2.076 4.908-3.24 2.831-1.164 6.103-1.164t5.946 1.069q2.674 1.07 4.53 3.083 1.856 2.014 2.862 4.877 1.007 2.862 1.007 6.449zM145.151 24.827q0-1.195-.063-3.083-.062-1.887-.188-3.334h5.599q.126 1.132.189 2.611.063 1.478.063 2.422h.189q1.258-2.642 3.681-4.247 2.422-1.604 5.442-1.604 1.384 0 2.328.251l-.252 5.474q-1.258-.314-2.705-.314-2.139 0-3.712.786-1.573.787-2.611 2.108-1.039 1.321-1.542 3.051-.503 1.731-.503 3.618v15.667h-5.915zM174.471 42.696h23.28v5.537h-29.509V3.687h28.565v5.474h-22.336v13.338h21.015v5.348h-21.015zM211.718 48.233h-5.914V18.41h5.914zm1.007-40.582q0 1.636-1.164 2.705-1.164 1.07-2.8 1.07t-2.768-1.101q-1.133-1.101-1.133-2.674 0-1.636 1.133-2.737 1.132-1.101 2.768-1.101t2.8 1.101q1.164 1.101 1.164 2.737zM242.926 25.96q-.944-1.447-2.832-2.422-1.887-.976-4.026-.976-2.328 0-4.121.881-1.794.881-3.052 2.36-1.258 1.478-1.919 3.429-.661 1.95-.661 4.089 0 2.139.661 4.09.661 1.95 1.919 3.429 1.258 1.479 3.083 2.359 1.825.881 4.153.881 2.265 0 4.121-.881 1.856-.88 3.051-2.391l3.964 3.587q-1.888 2.202-4.719 3.429-2.831 1.227-6.417 1.227-3.461 0-6.387-1.133-2.925-1.132-5.064-3.177-2.14-2.045-3.367-4.939-1.226-2.894-1.226-6.481 0-3.523 1.195-6.417 1.195-2.895 3.335-4.971 2.139-2.076 5.064-3.209 2.926-1.132 6.324-1.132 3.146 0 6.26 1.258 3.114 1.259 4.939 3.649zM259.284 22.94q1.07-2.202 3.65-3.775 2.579-1.573 5.788-1.573 2.894 0 4.971.975 2.076.975 3.46 2.611 1.384 1.636 2.045 3.838.66 2.202.66 4.719v18.498h-5.914V31.748q0-1.824-.283-3.46t-1.038-2.894q-.755-1.259-2.045-2.014-1.29-.755-3.366-.755-3.523 0-5.788 2.674t-2.265 7.141v15.793h-5.915V.667h5.915V22.94zM320 32.44q-1.888 0-3.272 1.353t-1.384 4.562v11.577q0 2.202-.598 3.712-.597 1.51-1.635 2.516-1.039 1.007-2.391 1.448-1.353.44-2.8.44h-4.279v-4.341h3.272q1.007 0 1.636-.409t.944-1.07q.314-.661.44-1.447.126-.787.126-1.604V37.851q0-2.265.661-3.712.66-1.447 1.604-2.296.944-.85 1.95-1.227 1.007-.378 1.699-.441v-.125q-.692-.063-1.699-.504-1.006-.44-1.95-1.29-.944-.849-1.604-2.233-.661-1.384-.661-3.461V11.048q0-.818-.126-1.604-.126-.787-.44-1.447-.315-.661-.944-1.07-.629-.409-1.636-.409h-3.272V2.177h4.279q1.447 0 2.8.44 1.352.441 2.391 1.447 1.038 1.007 1.635 2.549.598 1.541.598 3.68v11.829q0 3.02 1.384 4.341 1.384 1.322 3.272 1.322z"/></g></svg>

<?xml version="1.0" encoding="UTF-8"?><svg version="1.1" xmlns="http://www.w3.org/2000/svg" xmlns:xlink="http://www.w3.org/1999/xlink" x="0" y="0" width="320" height="64" viewBox="0, 0, 320, 64"><g id="Layer_1"><path d="M0,27.785 Q1.888,27.785 3.272,26.463 Q4.656,25.142 4.656,22.122 L4.656,10.293 Q4.656,8.154 5.254,6.613 Q5.851,5.071 6.89,4.064 Q7.928,3.058 9.28,2.617 Q10.633,2.177 12.08,2.177 L16.359,2.177 L16.359,6.518 L13.15,6.518 Q12.08,6.518 11.451,6.927 Q10.822,7.336 10.507,7.997 Q10.193,8.657 10.067,9.444 Q9.941,10.23 9.941,11.048 L9.941,22.562 Q9.941,24.639 9.28,26.023 Q8.62,27.407 7.676,28.256 Q6.732,29.106 5.726,29.546 Q4.719,29.987 4.09,30.05 L4.09,30.175 Q4.719,30.238 5.726,30.616 Q6.732,30.993 7.676,31.843 Q8.62,32.692 9.28,34.139 Q9.941,35.586 9.941,37.851 L9.941,49.177 Q9.941,49.994 10.067,50.781 Q10.193,51.567 10.507,52.228 Q10.822,52.889 11.451,53.298 Q12.08,53.707 13.15,53.707 L16.359,53.707 L16.359,58.048 L12.08,58.048 Q10.633,58.048 9.28,57.608 Q7.928,57.167 6.89,56.16 Q5.851,55.154 5.254,53.644 Q4.656,52.134 4.656,49.932 L4.656,38.355 Q4.656,35.146 3.272,33.793 Q1.888,32.44 0,32.44 z" fill="#fff"/><path d="M54.927,23.254 L47,23.254 L47,38.795 Q47,41.501 48.006,42.665 Q49.013,43.829 51.215,43.829 Q52.033,43.829 52.977,43.64 Q53.921,43.451 54.676,43.074 L54.864,47.918 Q53.795,48.296 52.505,48.516 Q51.215,48.736 49.831,48.736 Q45.615,48.736 43.382,46.408 Q41.148,44.08 41.148,39.424 L41.148,23.254 L35.423,23.254 L35.423,18.41 L41.148,18.41 L41.148,9.853 L47,9.853 L47,18.41 L54.927,18.41 z" fill="#fff"/><path d="M72.355,41.815 L72.481,41.815 L80.724,18.41 L87.015,18.41 L72.544,55.28 Q71.789,57.167 70.908,58.646 Q70.028,60.124 68.832,61.162 Q67.637,62.201 66.032,62.767 Q64.428,63.333 62.226,63.333 Q61.282,63.333 60.307,63.239 Q59.331,63.144 58.325,62.893 L58.891,57.67 Q60.401,58.174 61.848,58.174 Q64.176,58.174 65.309,56.884 Q66.441,55.594 67.385,53.203 L69.273,48.233 L56.5,18.41 L63.107,18.41 z" fill="#fff"/><path d="M98.781,48.233 L92.867,48.233 L92.867,0.667 L98.781,0.667 z" fill="#fff"/><path d="M130.932,30.679 Q130.869,28.917 130.334,27.376 Q129.799,25.834 128.761,24.702 Q127.723,23.569 126.182,22.908 Q124.64,22.248 122.564,22.248 Q120.676,22.248 119.009,22.908 Q117.342,23.569 116.115,24.702 Q114.888,25.834 114.101,27.376 Q113.315,28.917 113.189,30.679 z M136.909,33.07 Q136.909,33.573 136.909,34.076 Q136.909,34.58 136.846,35.083 L113.189,35.083 Q113.252,36.971 114.039,38.638 Q114.825,40.305 116.146,41.532 Q117.468,42.759 119.198,43.451 Q120.928,44.143 122.878,44.143 Q125.899,44.143 128.101,42.822 Q130.303,41.501 131.561,39.613 L135.714,42.948 Q133.323,46.094 130.083,47.572 Q126.842,49.051 122.878,49.051 Q119.481,49.051 116.587,47.918 Q113.692,46.786 111.616,44.741 Q109.54,42.696 108.344,39.802 Q107.149,36.908 107.149,33.384 Q107.149,29.924 108.313,26.998 Q109.477,24.072 111.553,21.996 Q113.63,19.92 116.461,18.756 Q119.292,17.592 122.564,17.592 Q125.836,17.592 128.51,18.661 Q131.184,19.731 133.04,21.744 Q134.896,23.758 135.902,26.621 Q136.909,29.483 136.909,33.07 z" fill="#fff"/><path d="M145.151,24.827 Q145.151,23.632 145.088,21.744 Q145.026,19.857 144.9,18.41 L150.499,18.41 Q150.625,19.542 150.688,21.021 Q150.751,22.499 150.751,23.443 L150.94,23.443 Q152.198,20.801 154.621,19.196 Q157.043,17.592 160.063,17.592 Q161.447,17.592 162.391,17.843 L162.139,23.317 Q160.881,23.003 159.434,23.003 Q157.295,23.003 155.722,23.789 Q154.149,24.576 153.111,25.897 Q152.072,27.218 151.569,28.948 Q151.066,30.679 151.066,32.566 L151.066,48.233 L145.151,48.233 z" fill="#fff"/><path d="M174.471,42.696 L197.751,42.696 L197.751,48.233 L168.242,48.233 L168.242,3.687 L196.807,3.687 L196.807,9.161 L174.471,9.161 L174.471,22.499 L195.486,22.499 L195.486,27.847 L174.471,27.847 z" fill="#fff"/><path d="M211.718,48.233 L205.804,48.233 L205.804,18.41 L211.718,18.41 z M212.725,7.651 Q212.725,9.287 211.561,10.356 Q210.397,11.426 208.761,11.426 Q207.125,11.426 205.993,10.325 Q204.86,9.224 204.86,7.651 Q204.86,6.015 205.993,4.914 Q207.125,3.813 208.761,3.813 Q210.397,3.813 211.561,4.914 Q212.725,6.015 212.725,7.651 z" fill="#fff"/><path d="M242.926,25.96 Q241.982,24.513 240.094,23.538 Q238.207,22.562 236.068,22.562 Q233.74,22.562 231.947,23.443 Q230.153,24.324 228.895,25.803 Q227.637,27.281 226.976,29.232 Q226.315,31.182 226.315,33.321 Q226.315,35.46 226.976,37.411 Q227.637,39.361 228.895,40.84 Q230.153,42.319 231.978,43.199 Q233.803,44.08 236.131,44.08 Q238.396,44.08 240.252,43.199 Q242.108,42.319 243.303,40.808 L247.267,44.395 Q245.379,46.597 242.548,47.824 Q239.717,49.051 236.131,49.051 Q232.67,49.051 229.744,47.918 Q226.819,46.786 224.68,44.741 Q222.54,42.696 221.313,39.802 Q220.087,36.908 220.087,33.321 Q220.087,29.798 221.282,26.904 Q222.477,24.009 224.617,21.933 Q226.756,19.857 229.681,18.724 Q232.607,17.592 236.005,17.592 Q239.151,17.592 242.265,18.85 Q245.379,20.109 247.204,22.499 z" fill="#fff"/><path d="M259.284,22.94 Q260.354,20.738 262.934,19.165 Q265.513,17.592 268.722,17.592 Q271.616,17.592 273.693,18.567 Q275.769,19.542 277.153,21.178 Q278.537,22.814 279.198,25.016 Q279.858,27.218 279.858,29.735 L279.858,48.233 L273.944,48.233 L273.944,31.748 Q273.944,29.924 273.661,28.288 Q273.378,26.652 272.623,25.394 Q271.868,24.135 270.578,23.38 Q269.288,22.625 267.212,22.625 Q263.689,22.625 261.424,25.299 Q259.159,27.973 259.159,32.44 L259.159,48.233 L253.244,48.233 L253.244,0.667 L259.159,0.667 L259.159,22.94 z" fill="#fff"/><path d="M320,32.44 Q318.112,32.44 316.728,33.793 Q315.344,35.146 315.344,38.355 L315.344,49.932 Q315.344,52.134 314.746,53.644 Q314.149,55.154 313.111,56.16 Q312.072,57.167 310.72,57.608 Q309.367,58.048 307.92,58.048 L303.641,58.048 L303.641,53.707 L306.913,53.707 Q307.92,53.707 308.549,53.298 Q309.178,52.889 309.493,52.228 Q309.807,51.567 309.933,50.781 Q310.059,49.994 310.059,49.177 L310.059,37.851 Q310.059,35.586 310.72,34.139 Q311.38,32.692 312.324,31.843 Q313.268,30.993 314.274,30.616 Q315.281,30.238 315.973,30.175 L315.973,30.05 Q315.281,29.987 314.274,29.546 Q313.268,29.106 312.324,28.256 Q311.38,27.407 310.72,26.023 Q310.059,24.639 310.059,22.562 L310.059,11.048 Q310.059,10.23 309.933,9.444 Q309.807,8.657 309.493,7.997 Q309.178,7.336 308.549,6.927 Q307.92,6.518 306.913,6.518 L303.641,6.518 L303.641,2.177 L307.92,2.177 Q309.367,2.177 310.72,2.617 Q312.072,3.058 313.111,4.064 Q314.149,5.071 314.746,6.613 Q315.344,8.154 315.344,10.293 L315.344,22.122 Q315.344,25.142 316.728,26.463 Q318.112,27.785 320,27.785 z" fill="#fff"/></g></svg>
